X:1
T:James Gibb editions
T:In time of fear - Barnby
%%score [ ( 1 2 ) ( 3 4 ) ]
L:1/8
Q:1/4=63
M:4/4
K:Eb
V:1 treble nm="Midi_74"
V:2 treble 
V:3 bass nm="Midi_74"
V:4 bass 
V:1
"^Massive""^In time of fear""^Joseph Barnby\n(1838-96)""^C.M." G2 | c2 =B2 c2 G2 | c2 =B2 c2 || %3
 e2 | d2 G-=A B2 A2 | G6 ||[M:4/4] c2 | A2 G2 F2 G2 |"^-" E2"^-" D2 C2 ||!f! C2 | CD E2 D2 D2 | %11
 C6 || F4 =E4 |] %13
V:2
 G2 | E2 F2 E2 D2 | G2 G2 G2 || ^F2 | G2 G2 G2 ^F2 | G6 ||[M:4/4] G2 | F2 =E2 F2 D2 | C2 =B,2 C2 || %9
 B,A, | G,2 C2 C2 =B,2 | C6 || C4 C4 |] %13
V:3
!mf! G,2 | G,2 G,2 G,2 =B,2 | C2 D2 C2 || C2 | D2 E2 D2 C2 | =B,6 ||[M:4/4] C2 | C2 B,2 C2 G,2 | %8
 G,2 F,2 E,2 || D,2 | E,2 G,2 G,2 F,2 | =E,6 || =A,4 G,4 |] %13
V:4
 G,2 | C,2 D,2 E,2 F,2 | E,2 G,F, E,2 || =A,,2 | B,,2 C,2 D,2 D,2 | G,6 ||[M:4/4] =E,2 | %7
 F,2 G,2 A,2 =B,,2 | C,2 G,,2 A,,2 || F,,2 | G,,2 G,,2 G,,2 G,,2 | C,6 || F,,4 C,4 |] %13

